!!!COA: des Prez, Josquin
!!!CDT: ~1450-1521/08/27
!!!OTL@@FRA: A l'ombre d'ung buissonnet
!!!AGN: Chanson
!!!SCT: NJE 27.2
!!!SCA: New Josquin Edition 27.2
!!!voices: 3
**kern	**text	**kern	**text	**kern	**text
*staff3	*	*staff2	*	*staff1	*
*Ivox	*	*Ivox	*	*Ivox	*
*I"Contra	*	*I"Tenor	*	*I"Superius	*
*I'C	*	*I'T	*	*I'S	*
*clefF4	*	*clefGv2	*	*clefG2	*
*k[b-]	*	*k[b-]	*	*k[b-]	*
*M2/1	*	*M2/1	*	*M2/1	*
*met(C|)	*	*met(C|)	*	*met(C|)	*
=1-	=1-	=1-	=1-	=1-	=1-
0r	.	0r	.	1d	A
.	.	.	.	1d	l'om-
=2	=2	=2	=2	=2	=2
0r	.	0r	.	1.g	-bre
.	.	.	.	2g/	d'ung
=3	=3	=3	=3	=3	=3
0r	.	1G	A	1g	buis-
.	.	1G	l'om-	1g	-son-
=4	=4	=4	=4	=4	=4
0r	.	1.c	-bre	1a	-net,
.	.	.	.	2g/	Au
.	.	2c\	d'ung	[2a/	ma-
=5	=5	=5	=5	=5	=5
1C	A	1c	buis-	4a/]	.
.	.	.	.	4g/	.
.	.	.	.	4a/	.
.	.	.	.	4f/	.
1C	l'om-	1c	-son-	2g/	.
.	.	.	.	2g/	-ti-
=6	=6	=6	=6	=6	=6
1.F	-bre	1d	-net,	2.f/	-net,
.	.	.	.	4g/	.
.	.	2c\	Au	2a/	.
2F\	d'ung	[2d\	ma-	2b-\	au
=7	=7	=7	=7	=7	=7
1F	buis-	4d\]	.	2f/	ma-
.	.	4c\	.	.	.
.	.	4d\	.	2.b-\	.
.	.	4B-\	.	.	.
1F	-son-	2c\	.	.	.
.	.	.	.	4a/	.
.	.	2c\	-ti-	4a/	-ti-
.	.	.	.	4g/	.
=8	=8	=8	=8	=8	=8
1G	-net,	2.B-\	-net,	1b-	-net,
.	.	4c\	.	.	.
2F\	Au	2d\	.	2r	.
[2G\	ma-	2e-i\	au	[2b-\	ma-
=9	=9	=9	=9	=9	=9
4G\]	.	2B-\	ma-	4b-\]	.
4F\	.	.	.	4a/	.
4G\	.	2.e-i\	.	4b-\	.
4E-i\	.	.	.	4g/	.
2F\	.	.	.	2a/	.
.	.	4d\	.	.	.
2F\	-ti-	4d\	-ti-	2a/	-ti-
.	.	4c\	.	.	.
=10	=10	=10	=10	=10	=10
1E-i	-net,	2e-i\	-net,	1g	-net,
.	.	2c\	.	.	.
2D\	au	2d\	.	2r	.
[2E-i\	ma-	2B-\	.	[2g/	ma-
=11	=11	=11	=11	=11	=11
4E-\]	.	2r	.	4g/]	.
4D\	.	.	.	4f/	.
4E-i\	.	2.c\	ma-	4g/	.
4C/	.	.	.	4e/	.
2D\	.	.	.	2f/	.
.	.	4Bni\	.	.	.
2D\	-ti-	4Bni\	-ti-	2f/	-ti-
.	.	4A/	.	.	.
=12	=12	=12	=12	=12	=12
[0C	net,	2.c\	net,	2e/	net,
.	.	.	.	2.g/	ma-
.	.	4B-\	.	.	.
.	.	2G/	.	.	.
.	.	.	.	4f/	.
.	.	[2A/	ma-	4e/	.
.	.	.	.	4d/	.
=13	=13	=13	=13	=13	=13
0C]	.	4A/]	.	2c/	.
.	.	4G/	.	.	.
.	.	4A/	.	1f	.
.	.	4F/	.	.	.
.	.	2G/	.	.	.
.	.	2G/	-ti-	2e/	-ti-
=14	=14	=14	=14	=14	=14
2.c\	Je	0F	-net,	0f	-net,
4c\	trou-	.	.	.	.
2c\	-vay	.	.	.	.
2c\	Bel-	.	.	.	.
=15	=15	=15	=15	=15	=15
2.d\	-lon	2.f\	Je	0r	.
4c\	m'a-	4f\	trou-	.	.
2B-\	-my-	2f\	-vay	.	.
2A\	-e,	2f\	Bel-	.	.
=16	=16	=16	=16	=16	=16
2.G\	je	2.g\	-lon	2.b-\	Je
4G\	trou-	4f\	m'a-	4b-\	trou-
2G\	-vay	2e\	-my-	2b-\	-vay
2G\	Bel-	2d\	.	2b-\	Bel-
=17	=17	=17	=17	=17	=17
2.A\	-lon	1c	-e,	2.cc\	-lon
4G\	m'a-	.	.	4b-\	m'a-
2F\	-my-	2c\	Bel-	2a/	-my-
2E\	.	2c\	-lon	2g/	.
=18	=18	=18	=18	=18	=18
1D	-e,	2d\	m'a-	2f/	-e,
.	.	2.f\	-my-	4d/	m'a-
.	.	.	.	4e/	.
2D\	Bel-	.	.	4f/	.
.	.	4e\	.	4g/	.
2D\	-lon	4d\	.	[2a/	-my-
.	.	4c\	.	.	.
=19	=19	=19	=19	=19	=19
2E\	m'a-	2B-\	.	2a/]	.
2C/	.	2c\	.	1g	.
1D	-my-	1A	.	.	.
.	.	.	.	2f#i/	.
=20	=20	=20	=20	=20	=20
[0GG	-e,	0G	-e,	1g	-e,
.	.	.	.	1r	.
=21	=21	=21	=21	=21	=21
0GG]	.	1r	.	1d	Qui
.	.	1G	Qui	2d/	fai-
.	.	.	.	[2g/	-soit
=22	=22	=22	=22	=22	=22
1C	Qui	2G/	fai-	2g/]	.
.	.	1c	-soit	2g/	ung
1C	fai-	.	.	2g/	chap-
.	.	2c\	ung	2g/	-pe-
=23	=23	=23	=23	=23	=23
2.F\	-soit	2c\	chap-	1a	-let,
.	.	2c\	-pe-	.	.
4F\	ung	.	.	.	.
2F\	chap-	1d	-let,	1r	.
2F\	-pe-	.	.	.	.
=24	=24	=24	=24	=24	=24
1G	-let,	1r	.	1d	qui
1r	.	1G	qui	2d/	fai-
.	.	.	.	[2g/	-soit
=25	=25	=25	=25	=25	=25
1C	qui	2G/	fai-	2g/]	.
.	.	1c	-soit	2g/	ung
1C	fai-	.	.	2g/	chap-
.	.	2c\	ung	2g/	-pe-
=26	=26	=26	=26	=26	=26
2.F\	-soit	2c\	chap-	1a	-let,
.	.	2c\	-pe-	.	.
4F\	ung	.	.	.	.
2F\	chap-	1d	-let,	1r	.
2F\	-pe-	.	.	.	.
=27	=27	=27	=27	=27	=27
1G	-let,	1r	.	1d	qui
1r	.	1G	qui	2d/	fai-
.	.	.	.	[2g/	-soit
=28	=28	=28	=28	=28	=28
1C	qui	2G/	fai-	2g/]	.
.	.	1c	-soit	2g/	ung
1C	fai-	.	.	2g/	chap-
.	.	2c\	ung	2g/	-pe-
=29	=29	=29	=29	=29	=29
1.F	-soit	2c\	chap-	1a	-let,
.	.	2c\	-pe-	.	.
.	.	1d	-let,	2r	.
2F\	ung	.	.	2a/	De
=30	=30	=30	=30	=30	=30
2F\	chap-	2c\	De	2cc\	si
2F\	-pe-	2.d\	si	2a/	.
1G	-let,	.	.	1b-	bon
.	.	4c\	.	.	.
.	.	4d\	.	.	.
.	.	4B-\	.	.	.
=31	=31	=31	=31	=31	=31
2r	.	2c\	.	1a	hait,
2F\	De	2c\	bon	.	.
2G\	si	2B-\	hait,	2r	.
2G\	bon	[2d\	de	2g/	de
=32	=32	=32	=32	=32	=32
1F	hait,	4d\]	.	2a/	si
.	.	4c\	.	.	.
.	.	1f	si	2f/	.
2r	.	.	.	1g	bon
2C/	de	2e\	bon	.	.
=33	=33	=33	=33	=33	=33
1D	si	1f	hait,	1f	hait,
1D	bon	2r	.	2r	.
.	.	2F/	de	2f/	de
=34	=34	=34	=34	=34	=34
0C	hait,	1A	si	2e/	si
.	.	.	.	2.f/	bon
.	.	1G	bon	.	.
.	.	.	.	4e/	.
.	.	.	.	4e/	.
.	.	.	.	4d/	.
=35	=35	=35	=35	=35	=35
2.c\	Je	0F	hait.	0f	hait.
4c\	luy	.	.	.	.
2c\	ditz&colon;	.	.	.	.
2c\	Dieu	.	.	.	.
=36	=36	=36	=36	=36	=36
2.d\	te	2.f\	Je	0r	.
4c\	be-	4f\	luy	.	.
2B-\	-gny-	2f\	ditz&colon;	.	.
2A\	-e,	2f\	Dieu	.	.
=37	=37	=37	=37	=37	=37
2.G\	je	2.g\	te	2.b-\	Je
4G\	luy	4f\	be-	4b-\	luy
2G\	ditz&colon;	2e\	-gny-	2b-\	ditz&colon;
2G\	Dieu	2d\	-e,	2b-\	Dieu
=38	=38	=38	=38	=38	=38
2.A\	te	2.c\	je	2.cc\	te
4G\	be-	4c\	luy	4b-\	be-
2F\	-gny-	2c\	ditz&colon;	2a/	-gny-
2E\	-e,	2c\	Dieu	2g/	-e,
=39	=39	=39	=39	=39	=39
2D\	je	2.d\	te	2f/	je
2D\	luy	.	.	2f/	luy
.	.	4c\	be-	.	.
2D\	ditz&colon;	2B-\	-gny-	2f/	ditz&colon;
2D\	Dieu	2A/	-e,	2f/	Dieu
=40	=40	=40	=40	=40	=40
2.E\	te	2.G/	je	2.g/	te
4D\	be-	4G/	luy	4f/	be-
2C/	-gny-	2G/	ditz&colon;	2e/	-gny-
2BB-/	-e,	2G/	Dieu	2d/	-e,
=41	=41	=41	=41	=41	=41
2AA/	je	2.A/	te	2c/	je
2AA/	luy	.	.	2c/	luy
.	.	4G/	be-	.	.
2AA/	ditz&colon;	2F/	-gny-	2c/	ditz&colon;
2AA/	Dieu	2E/	.	2c/	Dieu
=42	=42	=42	=42	=42	=42
2.BB-/	te	1D	-e,	2.d/	te
4C/	.	.	.	4c/	be-
4D\	.	2r	.	2B-/	-gny-
4E\	.	.	.	.	-e,
2F\	be-	2D/	be-	2A/	.
=43	=43	=43	=43	=43	=43
2G\	-gny-	2E/	-gny-	2G/	te
2GG/	.	2.G/	.	2B-/	be-
1D	.	.	.	1A	-gny-
.	.	4F#i/	.	.	.
.	.	4F#i/	.	.	.
.	.	4E/	.	.	.
=44	=44	=44	=44	=44	=44
1GG	-e.	0G	-e.	[0G	-e.
1r	.	.	.	.	.
=45	=45	=45	=45	=45	=45
1.GG	Je	1r	.	0G]	.
.	.	[1D	Je	.	.
2AA/	te	.	.	.	.
=46	=46	=46	=46	=46	=46
2BB-/	pry,	2D/]	.	0r	.
2C/	Bel-	2E/	te	.	.
2D\	-lon	2F/	pry,	.	.
2E\	m'a-	2G/	Bel-	.	.
=47	=47	=47	=47	=47	=47
1.F	-my-	2A/	-lon	0r	.
.	.	2B-\	m'a-	.	.
.	.	[1c	-my-	.	.
2E\	.	.	.	.	.
=48	=48	=48	=48	=48	=48
1C	-e,	2c\]	.	0r	.
.	.	2B-\	.	.	.
2E\	Ay-	1G	-e,	.	.
2F\	-me	.	.	.	.
=49	=49	=49	=49	=49	=49
2.G\	moy,	2.B-\	Ay-	0r	.
4F\	.	4c\	-me	.	.
2D\	.	2d\	moy,	.	.
[2B-\	je	2G/	je	.	.
=50	=50	=50	=50	=50	=50
4B-\]	.	1B-	suis	0r	.
4A\	.	.	.	.	.
1G	suis	.	.	.	.
.	.	1A	Ro-	.	.
2F#i\	Ro-	.	.	.	.
=51	=51	=51	=51	=51	=51
[0G	-bin.	1G	-bin.	0r	.
.	.	1r	.	.	.
=52	=52	=52	=52	=52	=52
0G]	.	1.G	Ro-	1r	.
.	.	.	.	[1d	Ro-
.	.	2A/	-bin,	.	.
=53	=53	=53	=53	=53	=53
0r	.	2B-\	par	2d/]	.
.	.	2c\	sainc-	2e/	-bin,
.	.	2d\	-te	2f/	par
.	.	2e\	Ma-	2g/	sainc-
=54	=54	=54	=54	=54	=54
0r	.	1.f	-ri-	2a/	-te
.	.	.	.	2b-\	Ma-
.	.	.	.	[1cc	-ri-
.	.	2e\	.	.	.
=55	=55	=55	=55	=55	=55
0r	.	1c	-e,	2cc\]	.
.	.	.	.	2b-\	.
.	.	2e\	Je	1g	-e,
.	.	2f\	ne	.	.
=56	=56	=56	=56	=56	=56
0r	.	2.g\	t'ay-	2.b-\	Je
.	.	4f\	.	4cc\	ne
.	.	2d\	-me	2dd\	t'ay-
.	.	[2b-\	pas	2g/	-me
=57	=57	=57	=57	=57	=57
0r	.	4b-\]	.	1b-	pas
.	.	4a\	.	.	.
.	.	1g	.	.	.
.	.	.	.	1a	ung
.	.	2f#i\	ung	.	.
=58	=58	=58	=58	=58	=58
1.G	Je	1g	brin.	0g	brin.
.	.	1r	.	.	.
2G\	te	.	.	.	.
=59	=59	=59	=59	=59	=59
2G\	don-	1.d	Je	0r	.
2G\	-ray	.	.	.	.
2G\	de	.	.	.	.
2G\	mon	2d\	te	.	.
=60	=60	=60	=60	=60	=60
1.F	pain	2d\	don-	2.a/	Je
.	.	2d\	-ray	.	.
.	.	.	.	4a/	te
.	.	2d\	de	2a/	don-
4E\	.	2d\	mon	2a/	-ray
4D\	.	.	.	.	.
=61	=61	=61	=61	=61	=61
2.F\	.	1.c	pain	2a/	de
.	.	.	.	2a/	mon
4E\	.	.	.	.	.
2.C/	.	.	.	[1g	pain
.	.	4B-\	.	.	.
4D\	.	4A/	.	.	.
=62	=62	=62	=62	=62	=62
4E\	Ung	2.G/	.	2g/]	.
4F\	.	.	.	.	.
1G	grant	.	.	4f/	.
.	.	4A/	.	4e/	.
.	.	2B-\	.	4d/	.
.	.	.	.	4c/	.
2C/	plain	2c\	Ung	[2g/	Ung
=63	=63	=63	=63	=63	=63
1D	poing	1F	grant	2g/]	.
.	.	.	.	1f	grant
1C	.	1G	plain	.	.
.	.	.	.	2e/	plain
=64	=64	=64	=64	=64	=64
2.c\	De	0F	poing	0f	poing
4c\	la	.	.	.	.
2c\	cros-	.	.	.	.
2c\	-te et	.	.	.	.
=65	=65	=65	=65	=65	=65
2.d\	de	2.f\	De	0r	.
4c\	la	4f\	la	.	.
2B-\	my-	2f\	cros-	.	.
2A\	-e,	2f\	-te et	.	.
=66	=66	=66	=66	=66	=66
2.G\	de	2.g\	de	2.b-\	De
4G\	la	4f\	la	4b-\	la
2G\	cros-	2e\	my-	2b-\	cros-
2G\	-te et	2d\	-e,	2b-\	-te et
=67	=67	=67	=67	=67	=67
2.A\	de	2c\	la	2.cc\	de
.	.	4A/	my-	.	.
4G\	la	4B-\	.	4b-\	la
2F\	my-	4c\	.	2a/	my-
.	.	4d\	.	.	.
2E\	.	4e\	.	2g/	.
.	.	4c\	.	.	.
=68	=68	=68	=68	=68	=68
1D	-e,	2d\	.	2f/	-e,
.	.	2.f\	.	4d/	la
.	.	.	.	4e/	.
2D\	de	.	.	4f/	.
.	.	4e\	.	4g/	.
2D\	la	4d\	.	[2a/	my-
.	.	4c\	.	.	.
=69	=69	=69	=69	=69	=69
2E\	my-	2B-\	.	2a/]	.
2C/	.	2c\	.	1g	.
1D	.	1A	.	.	.
.	.	.	.	2f#i/	.
=70	=70	=70	=70	=70	=70
0GG	-e,	1G	-e,	1g	-e,
.	.	2g\	de	1r	.
.	.	2g\	la	.	.
=71	=71	=71	=71	=71	=71
2.G\	de	2.g\	cros-	2.b-\	de
4G\	la	4f\	-te et	4b-\	la
2G\	cros-	2e\	de	2b-\	cros-
2G\	-te et	2d\	la	2b-\	-te et
=72	=72	=72	=72	=72	=72
2.A\	de	2c\	my-	2.cc\	de
.	.	4A/	.	.	.
4G\	la	4B-\	.	4b-\	la
2F\	my-	4c\	.	2a/	my-
.	.	4d\	.	.	.
2E\	.	4e\	.	2g/	.
.	.	4c\	.	.	.
=73	=73	=73	=73	=73	=73
1D	-e,	2d\	.	2f/	-e,
.	.	2.f\	.	4d/	la
.	.	.	.	4e/	.
2D\	de	.	.	4f/	.
.	.	4e\	.	4g/	.
2D\	la	4d\	.	[2a/	my-
.	.	4c\	.	.	.
=74	=74	=74	=74	=74	=74
2E\	my-	2B-\	.	2a/]	.
2C/	.	2c\	.	1g	.
1D	.	1A	.	.	.
.	.	.	.	2f#i/	.
=75	=75	=75	=75	=75	=75
1GG	-e,	2G/	-e,	2g/	-e,
.	.	2d\	la	2b-\	la
2r	.	4f\	my-	4a/	my-
.	.	4e\	.	4g/	.
2D\	la	4d\	.	[2a/	.
.	.	4c\	.	.	.
=76	=76	=76	=76	=76	=76
2E\	my-	2B-\	.	2a/]	.
2C/	.	2c\	.	1g	.
1D	.	1A	.	.	.
.	.	.	.	2f#i/	.
=77	=77	=77	=77	=77	=77
0GGl	-e.	0Gl	-e.	0gl	-e.
==	==	==	==	==	==
*-	*-	*-	*-	*-	*-
!!!RDF**kern: l=long note in original notation
!!!RDF**kern: i=editorial accidental
!!!ENC: Jesse Rodin; Victoria Chang 2011/05/30/
!!!END: 2011/05/30/
!!!EED: Jesse Rodin
!!!EEV: 2011/08/12/
!!attribution-level@Jos: 2 (provisionally attributable [parentheses checkmark])
!!!ONB: Translated from MusicXML and edited on 2011/08/12/ by Craig Sapp
!!muse2ps:  C^@{COA}\n@{SCT}^i2I150v90,90,120c105z18l2700t130
